src/components/Icon/svg-icon/main/phone.svg

<svg xmlns="http://www.w3.org/2000/svg" width="24" height="24"><path fill="#677078" d="M6.62 10.79c1.44 2.83 3.76 5.14 6.59 6.59l2.2-2.2c.27-.27.67-.36 1.02-.24 1.12.37 2.33.57 3.57.57.55 0 1 .45 1 1V20c0 .55-.45 1-1 1-9.39 0-17-7.61-17-17 0-.55.45-1 1-1h3.5c.55 0 1 .45 1 1 0 1.25.2 2.45.57 3.57.11.35.03.74-.25 1.02l-2.2 2.2z"/></svg>

<svg xmlns="http://www.w3.org/2000/svg" width="24" height="24" viewBox="0 0 24 24">
  <path fill="#677078" d="M6.62,10.79 C8.06,13.62 10.38,15.93 13.21,17.38 L15.41,15.18 C15.68,14.91 16.08,14.82 16.43,14.94 C17.55,15.31 18.76,15.51 20,15.51 C20.55,15.51 21,15.96 21,16.51 L21,20 C21,20.55 20.55,21 20,21 C10.61,21 3,13.39 3,4 C3,3.45 3.45,3 4,3 L7.5,3 C8.05,3 8.5,3.45 8.5,4 C8.5,5.25 8.7,6.45 9.07,7.57 C9.18,7.92 9.1,8.31 8.82,8.59 L6.62,10.79 Z"/>
</svg>
